X:18
T:Ships are Sailing
M:4/4
L:1/8
R:reel
K:D
|:"Em"Beed BcdB|"D"AD (3FED AD (3FED|"Em"~E3F GFGA|1Beef gfed:|2Beed e2ef|
|:gfga bgeg|"D"fefg afdf|1 "Em"gfga bgeg|"B or D"fefg "Em"e3f:|\
[2 "Em"g2bg "D"f2af|edef "Em"g4||
